icon-themes/sifr_svg/cmd/nl/sc_underlinedouble.svg

<svg viewBox="0 0 16 16" xmlns="http://www.w3.org/2000/svg"><path d="m7 1c-1.6568542 0-3 1.343146-3 3v5h2v-5c0-.552285.4477153-1 1-1h2c.5522847 0 1 .447715 1 1v5h2v-5c0-1.656854-1.343146-3-3-3zm-5 9v2h12v-2zm0 3v2h12v-2z" fill="#555753"/></svg>

<svg xmlns="http://www.w3.org/2000/svg" viewBox="0 0 16 16">
<path
   style="fill:#555753"
   d="M 7 1 C 5.3431458 1 4 2.343146 4 4 L 4 9 L 6 9 L 6 4 C 6 3.447715 6.4477153 3 7 3 L 9 3 C 9.5522847 3 10 3.447715 10 4 L 10 9 L 12 9 L 12 4 C 12 2.343146 10.656854 1 9 1 L 7 1 z M 2 10 L 2 12 L 14 12 L 14 10 L 2 10 z M 2 13 L 2 15 L 14 15 L 14 13 L 2 13 z "
   />
</svg>
